; generated by Slic3r 1.3.0-dev on 2018-03-15 at 11:40:20

; external perimeters extrusion width = 0.40mm (2.14mm^3/s)
; perimeters extrusion width = 0.67mm (3.77mm^3/s)
; infill extrusion width = 0.67mm (3.77mm^3/s)
; solid infill extrusion width = 0.67mm (3.77mm^3/s)
; top infill extrusion width = 0.67mm (3.77mm^3/s)

M107
M190 S50 ; set bed temperature and wait for it to be reached
M104 S210 ; set temperature
G28 ; home all axes
G1 Z10 F5000 ; lift nozzle

; Filament gcode

M109 S210 ; set temperature and wait for it to be reached
G21 ; set units to millimeters
G90 ; use absolute coordinates
M82 ; use absolute distances for extrusion
G92 E0
G1 E-4.00000 F2400.00000
G92 E0
G1 Z0.600 F7800.000
G1 X93.015 Y140.197 F7800.000
G1 Z0.200 F7800.000
G1 E4.25000 F2400.00000
G1 F1800
G1 X95.000 Y139.803 E4.28316
G1 X205.000 Y139.803 E6.08576
G1 X206.990 Y140.199 E6.11901
G1 X208.677 Y141.327 E6.15226
G1 X209.803 Y143.015 E6.18552
G1 X210.197 Y145.000 E6.21868
G1 X210.197 Y155.000 E6.38255
G1 X209.801 Y156.990 E6.41580
G1 X208.673 Y158.677 E6.44906
G1 X206.985 Y159.803 E6.48231
G1 X205.000 Y160.197 E6.51547
G1 X95.000 Y160.197 E8.31807
G1 X93.010 Y159.801 E8.35132
G1 X91.323 Y158.673 E8.38457
G1 X90.197 Y156.985 E8.41783
G1 X89.803 Y155.000 E8.45099
G1 X89.803 Y145.000 E8.61486
G1 X90.199 Y143.010 E8.64811
G1 X91.327 Y141.323 E8.68137
G1 X92.965 Y140.230 E8.71363
G1 F6240
G1 X95.000 Y139.803 E7.95394
G1 F6240
G1 X103.321 Y139.803 E4.91364
G1 E4.71363 F2400.00000
G92 E0
G1 Z0.800 F7800.000
G1 X195.317 Y154.683 F7800.000
G1 Z0.200 F7800.000
G1 E4.25000 F2400.00000
G1 F1800
G1 X195.317 Y145.317 E4.40348
G1 X204.683 Y145.317 E4.55696
G1 X204.683 Y154.683 E4.71044
G1 X195.377 Y154.683 E4.86294
G1 X195.120 Y154.880 F7800.000
G1 F1800
G1 X195.120 Y145.120 E5.02288
G1 X204.880 Y145.120 E5.18282
G1 X204.880 Y154.880 E5.34276
G1 X195.180 Y154.880 E5.50171
G1 X195.224 Y154.494 F7800.000
G1 F6240
G1 X195.120 Y145.120 E1.93549
G1 F6240
G1 X195.760 Y145.120 E1.70171
G1 E1.50171 F2400.00000
G92 E0
G1 Z0.800 F7800.000
G1 X204.458 Y154.514 F7800.000
G1 Z0.200 F7800.000
G1 E4.25000 F2400.00000
G1 F1800
G1 X204.514 Y154.458 E4.25130
G1 X204.514 Y154.177 E4.25592
G1 X204.177 Y154.514 E4.26376
G1 X203.897 Y154.514 E4.26838
G1 X204.514 Y153.897 E4.28276
G1 X204.514 Y153.617 E4.28738
G1 X203.617 Y154.514 E4.30829
G1 X203.336 Y154.514 E4.31291
G1 X204.514 Y153.336 E4.34036
G1 X204.514 Y153.056 E4.34498
G1 X203.056 Y154.514 E4.37896
G1 X202.776 Y154.514 E4.38358
G1 X204.514 Y152.776 E4.42410
G1 X204.514 Y152.495 E4.42872
G1 X202.495 Y154.514 E4.47578
G1 X202.215 Y154.514 E4.48040
G1 X204.514 Y152.215 E4.53399
G1 X204.514 Y151.935 E4.53861
G1 X201.935 Y154.514 E4.59873
G1 X201.654 Y154.514 E4.60335
G1 X204.514 Y151.654 E4.67001
G1 X204.514 Y151.374 E4.67464
G1 X201.374 Y154.514 E4.74783
G1 X201.094 Y154.514 E4.75245
G1 X204.514 Y151.094 E4.83219
G1 X204.514 Y150.813 E4.83681
G1 X200.813 Y154.514 E4.92308
G1 X200.533 Y154.514 E4.92770
G1 X204.514 Y150.533 E5.02050
G1 X204.514 Y150.252 E5.02512
G1 X200.252 Y154.514 E5.12446
G1 X199.972 Y154.514 E5.12908
G1 X204.514 Y149.972 E5.23496
G1 X204.514 Y149.692 E5.23958
G1 X199.692 Y154.514 E5.35199
G1 X199.411 Y154.514 E5.35661
G1 X204.514 Y149.411 E5.47556
G1 X204.514 Y149.131 E5.48018
G1 X199.131 Y154.514 E5.60567
G1 X198.851 Y154.514 E5.61029
G1 X204.514 Y148.851 E5.74231
G1 X204.514 Y148.570 E5.74693
G1 X198.570 Y154.514 E5.88548
G1 X198.290 Y154.514 E5.89010
G1 X204.514 Y148.290 E6.03519
G1 X204.514 Y148.010 E6.03982
G1 X198.010 Y154.514 E6.19144
G1 X197.729 Y154.514 E6.19606
G1 X204.514 Y147.729 E6.35422
G1 X204.514 Y147.449 E6.35885
G1 X197.449 Y154.514 E6.52354
G1 X197.168 Y154.514 E6.52817
G1 X204.514 Y147.168 E6.69940
G1 X204.514 Y146.888 E6.70402
G1 X196.888 Y154.514 E6.88179
G1 X196.608 Y154.514 E6.88641
G1 X204.514 Y146.608 E7.07072
G1 X204.514 Y146.327 E7.07534
G1 X196.327 Y154.514 E7.26618
G1 X196.047 Y154.514 E7.27080
G1 X204.514 Y146.047 E7.46818
G1 X204.514 Y145.767 E7.47280
G1 X195.767 Y154.514 E7.67671
G1 X195.486 Y154.514 E7.68133
G1 X204.514 Y145.486 E7.89178
G1 X204.233 Y145.486 E7.89640
G1 X195.486 Y154.233 E8.10032
G1 X195.486 Y153.953 E8.10494
G1 X203.953 Y145.486 E8.30232
G1 X203.673 Y145.486 E8.30694
G1 X195.486 Y153.673 E8.49778
G1 X195.486 Y153.392 E8.50240
G1 X203.392 Y145.486 E8.68671
G1 X203.112 Y145.486 E8.69133
G1 X195.486 Y153.112 E8.86910
G1 X195.486 Y152.832 E8.87372
G1 X202.832 Y145.486 E9.04496
G1 X202.551 Y145.486 E9.04958
G1 X195.486 Y152.551 E9.21428
G1 X195.486 Y152.271 E9.21890
G1 X202.271 Y145.486 E9.37706
G1 X201.991 Y145.486 E9.38169
G1 X195.486 Y151.991 E9.53331
G1 X195.486 Y151.710 E9.53793
G1 X201.710 Y145.486 E9.68303
G1 X201.430 Y145.486 E9.68765
G1 X195.486 Y151.430 E9.82621
G1 X195.486 Y151.149 E9.83083
G1 X201.149 Y145.486 E9.96285
G1 X200.869 Y145.486 E9.96747
G1 X195.486 Y150.869 E10.09295
G1 X195.486 Y150.589 E10.09757
G1 X200.589 Y145.486 E10.21652
G1 X200.308 Y145.486 E10.22115
G1 X195.486 Y150.308 E10.33356
G1 X195.486 Y150.028 E10.33818
G1 X200.028 Y145.486 E10.44406
G1 X199.748 Y145.486 E10.44868
G1 X195.486 Y149.748 E10.54802
G1 X195.486 Y149.467 E10.55264
G1 X199.467 Y145.486 E10.64545
G1 X199.187 Y145.486 E10.65007
G1 X195.486 Y149.187 E10.73634
G1 X195.486 Y148.907 E10.74096
G1 X198.907 Y145.486 E10.82069
G1 X198.626 Y145.486 E10.82532
G1 X195.486 Y148.626 E10.89851
G1 X195.486 Y148.346 E10.90314
G1 X198.346 Y145.486 E10.96980
G1 X198.065 Y145.486 E10.97442
G1 X195.486 Y148.065 E11.03455
G1 X195.486 Y147.785 E11.03917
G1 X197.785 Y145.486 E11.09276
G1 X197.505 Y145.486 E11.09738
G1 X195.486 Y147.505 E11.14444
G1 X195.486 Y147.224 E11.14906
G1 X197.224 Y145.486 E11.18958
G1 X196.944 Y145.486 E11.19420
G1 X195.486 Y146.944 E11.22818
G1 X195.486 Y146.664 E11.23280
G1 X196.664 Y145.486 E11.26025
G1 X196.383 Y145.486 E11.26487
G1 X195.486 Y146.383 E11.28579
G1 X195.486 Y146.103 E11.29041
G1 X196.103 Y145.486 E11.30478
G1 X195.823 Y145.486 E11.30940
G1 X195.486 Y145.823 E11.31724
G1 X195.486 Y145.542 E11.32187
G1 X195.542 Y145.486 E11.32317
G1 F6240
G1 X195.486 Y145.542 E11.29425
G1 F6240
G1 X195.486 Y145.823 E11.19181
G1 F6240
G1 X195.823 Y145.486 E11.01802
G1 F6240
G1 X196.103 Y145.486 E10.91558
G1 F6240
G1 X195.486 Y146.103 E10.59692
G1 F6240
G1 X195.486 Y146.383 E10.49448
G1 F6240
G1 X196.383 Y145.486 E10.03095
G1 F6240
G1 X196.664 Y145.486 E9.92851
G1 F6240
G1 X195.486 Y146.664 E9.32011
G1 F6240
G1 X195.486 Y146.944 E9.21767
G1 F6240
G1 X196.944 Y145.486 E8.46440
G1 F6240
G1 X197.224 Y145.486 E8.36196
G1 F6240
G1 X195.601 Y147.110 E7.52317
G1 E7.32317 F2400.00000
G92 E0
G1 Z0.800 F7800.000
G1 X154.683 Y154.683 F7800.000
G1 Z0.200 F7800.000
G1 E4.25000 F2400.00000
G1 F1800
G1 X145.317 Y154.683 E4.40348
G1 X145.317 Y145.317 E4.55696
G1 X154.683 Y145.317 E4.71044
G1 X154.683 Y154.623 E4.86294
G1 X154.880 Y154.880 F7800.000
G1 F1800
G1 X145.120 Y154.880 E5.02288
G1 X145.120 Y145.120 E5.18282
G1 X154.880 Y145.120 E5.34276
G1 X154.880 Y154.820 E5.50171
G1 X154.494 Y154.776 F7800.000
G1 X154.458 Y154.514 F7800.000
G1 F1800
G1 X154.514 Y154.458 E5.50302
G1 X154.514 Y154.177 E5.50764
G1 X154.177 Y154.514 E5.51548
G1 X153.897 Y154.514 E5.52010
G1 X154.514 Y153.897 E5.53447
G1 X154.514 Y153.617 E5.53909
G1 X153.617 Y154.514 E5.56000
G1 X153.336 Y154.514 E5.56462
G1 X154.514 Y153.336 E5.59207
G1 X154.514 Y153.056 E5.59669
G1 X153.056 Y154.514 E5.63067
G1 X152.776 Y154.514 E5.63530
G1 X154.514 Y152.776 E5.67581
G1 X154.514 Y152.495 E5.68043
G1 X152.495 Y154.514 E5.72749
G1 X152.215 Y154.514 E5.73211
G1 X154.514 Y152.215 E5.78570
G1 X154.514 Y151.935 E5.79032
G1 X151.935 Y154.514 E5.85044
G1 X151.654 Y154.514 E5.85507
G1 X154.514 Y151.654 E5.92173
G1 X154.514 Y151.374 E5.92635
G1 X151.374 Y154.514 E5.99954
G1 X151.094 Y154.514 E6.00417
G1 X154.514 Y151.094 E6.08390
G1 X154.514 Y150.813 E6.08852
G1 X150.813 Y154.514 E6.17479
G1 X150.533 Y154.514 E6.17941
G1 X154.514 Y150.533 E6.27221
G1 X154.514 Y150.252 E6.27684
G1 X150.252 Y154.514 E6.37618
G1 X149.972 Y154.514 E6.38080
G1 X154.514 Y149.972 E6.48667
G1 X154.514 Y149.692 E6.49129
G1 X149.692 Y154.514 E6.60370
G1 X149.411 Y154.514 E6.60833
G1 X154.514 Y149.411 E6.72727
G1 X154.514 Y149.131 E6.73190
G1 X149.131 Y154.514 E6.85738
G1 X148.851 Y154.514 E6.86200
G1 X154.514 Y148.851 E6.99402
G1 X154.514 Y148.570 E6.99864
G1 X148.570 Y154.514 E7.13719
G1 X148.290 Y154.514 E7.14182
G1 X154.514 Y148.290 E7.28691
G1 X154.514 Y148.010 E7.29153
G1 X148.010 Y154.514 E7.44315
G1 X147.729 Y154.514 E7.44778
G1 X154.514 Y147.729 E7.60594
G1 X154.514 Y147.449 E7.61056
G1 X147.449 Y154.514 E7.77526
G1 X147.168 Y154.514 E7.77988
G1 X154.514 Y147.168 E7.95111
G1 X154.514 Y146.888 E7.95573
G1 X146.888 Y154.514 E8.13350
G1 X146.608 Y154.514 E8.13812
G1 X154.514 Y146.608 E8.32243
G1 X154.514 Y146.327 E8.32705
G1 X146.327 Y154.514 E8.51789
G1 X146.047 Y154.514 E8.52251
G1 X154.514 Y146.047 E8.71989
G1 X154.514 Y145.767 E8.72451
G1 X145.767 Y154.514 E8.92842
G1 X145.486 Y154.514 E8.93304
G1 X154.514 Y145.486 E9.14349
G1 X154.233 Y145.486 E9.14811
G1 X145.486 Y154.233 E9.35203
G1 X145.486 Y153.953 E9.35665
G1 X153.953 Y145.486 E9.55403
G1 X153.673 Y145.486 E9.55865
G1 X145.486 Y153.673 E9.74949
G1 X145.486 Y153.392 E9.75411
G1 X153.392 Y145.486 E9.93842
G1 X153.112 Y145.486 E9.94304
G1 X145.486 Y153.112 E10.12081
G1 X145.486 Y152.832 E10.12544
G1 X152.832 Y145.486 E10.29667
G1 X152.551 Y145.486 E10.30129
G1 X145.486 Y152.551 E10.46599
G1 X145.486 Y152.271 E10.47061
G1 X152.271 Y145.486 E10.62878
G1 X151.991 Y145.486 E10.63340
G1 X145.486 Y151.991 E10.78503
G1 X145.486 Y151.710 E10.78965
G1 X151.710 Y145.486 E10.93474
G1 X151.430 Y145.486 E10.93936
G1 X145.486 Y151.430 E11.07792
G1 X145.486 Y151.149 E11.08254
G1 X151.149 Y145.486 E11.21456
G1 X150.869 Y145.486 E11.21918
G1 X145.486 Y150.869 E11.34467
G1 X145.486 Y150.589 E11.34929
G1 X150.589 Y145.486 E11.46824
G1 X150.308 Y145.486 E11.47286
G1 X145.486 Y150.308 E11.58527
G1 X145.486 Y150.028 E11.58989
G1 X150.028 Y145.486 E11.69577
G1 X149.748 Y145.486 E11.70039
G1 X145.486 Y149.748 E11.79973
G1 X145.486 Y149.467 E11.80435
G1 X149.467 Y145.486 E11.89716
G1 X149.187 Y145.486 E11.90178
G1 X145.486 Y149.187 E11.98805
G1 X145.486 Y148.907 E11.99267
G1 X148.907 Y145.486 E12.07241
G1 X148.626 Y145.486 E12.07703
G1 X145.486 Y148.626 E12.15023
G1 X145.486 Y148.346 E12.15485
G1 X148.346 Y145.486 E12.22151
G1 X148.065 Y145.486 E12.22613
G1 X145.486 Y148.065 E12.28626
G1 X145.486 Y147.785 E12.29088
G1 X147.785 Y145.486 E12.34447
G1 X147.505 Y145.486 E12.34909
G1 X145.486 Y147.505 E12.39615
G1 X145.486 Y147.224 E12.40077
G1 X147.224 Y145.486 E12.44129
G1 X146.944 Y145.486 E12.44591
G1 X145.486 Y146.944 E12.47989
G1 X145.486 Y146.664 E12.48452
G1 X146.664 Y145.486 E12.51196
G1 X146.383 Y145.486 E12.51659
G1 X145.486 Y146.383 E12.53750
G1 X145.486 Y146.103 E12.54212
G1 X146.103 Y145.486 E12.55650
G1 X145.823 Y145.486 E12.56112
G1 X145.486 Y145.823 E12.56896
G1 X145.486 Y145.542 E12.57358
G1 X145.542 Y145.486 E12.57488
G1 F6240
G1 X145.486 Y145.542 E12.54597
G1 F6240
G1 X145.486 Y145.823 E12.44353
G1 F6240
G1 X145.823 Y145.486 E12.26974
G1 F6240
G1 X146.103 Y145.486 E12.16730
G1 F6240
G1 X145.486 Y146.103 E11.84864
G1 F6240
G1 X145.486 Y146.383 E11.74620
G1 F6240
G1 X146.383 Y145.486 E11.28267
G1 F6240
G1 X146.664 Y145.486 E11.18023
G1 F6240
G1 X145.486 Y146.664 E10.57182
G1 F6240
G1 X145.486 Y146.944 E10.46938
G1 F6240
G1 X146.944 Y145.486 E9.71611
G1 F6240
G1 X147.224 Y145.486 E9.61367
G1 F6240
G1 X145.601 Y147.110 E8.77488
G1 E8.57488 F2400.00000
G92 E0
G1 Z0.800 F7800.000
G1 X124.683 Y154.683 F7800.000
G1 Z0.200 F7800.000
G1 E4.25000 F2400.00000
G1 F1800
G1 X115.317 Y154.683 E4.40348
G1 X115.317 Y145.317 E4.55696
G1 X124.683 Y145.317 E4.71044
G1 X124.683 Y154.623 E4.86294
G1 X124.880 Y154.880 F7800.000
G1 F1800
G1 X115.120 Y154.880 E5.02288
G1 X115.120 Y145.120 E5.18282
G1 X124.880 Y145.120 E5.34276
G1 X124.880 Y154.820 E5.50171
G1 X124.494 Y154.776 F7800.000
G1 X124.458 Y154.514 F7800.000
G1 F1800
G1 X124.514 Y154.458 E5.50302
G1 X124.514 Y154.177 E5.50764
G1 X124.177 Y154.514 E5.51548
G1 X123.897 Y154.514 E5.52010
G1 X124.514 Y153.897 E5.53447
G1 X124.514 Y153.617 E5.53909
G1 X123.617 Y154.514 E5.56000
G1 X123.336 Y154.514 E5.56462
G1 X124.514 Y153.336 E5.59207
G1 X124.514 Y153.056 E5.59669
G1 X123.056 Y154.514 E5.63067
G1 X122.776 Y154.514 E5.63530
G1 X124.514 Y152.776 E5.67581
G1 X124.514 Y152.495 E5.68043
G1 X122.495 Y154.514 E5.72749
G1 X122.215 Y154.514 E5.73211
G1 X124.514 Y152.215 E5.78570
G1 X124.514 Y151.935 E5.79032
G1 X121.935 Y154.514 E5.85044
G1 X121.654 Y154.514 E5.85507
G1 X124.514 Y151.654 E5.92173
G1 X124.514 Y151.374 E5.92635
G1 X121.374 Y154.514 E5.99954
G1 X121.094 Y154.514 E6.00417
G1 X124.514 Y151.094 E6.08390
G1 X124.514 Y150.813 E6.08852
G1 X120.813 Y154.514 E6.17479
G1 X120.533 Y154.514 E6.17941
G1 X124.514 Y150.533 E6.27221
G1 X124.514 Y150.252 E6.27684
G1 X120.252 Y154.514 E6.37618
G1 X119.972 Y154.514 E6.38080
G1 X124.514 Y149.972 E6.48667
G1 X124.514 Y149.692 E6.49129
G1 X119.692 Y154.514 E6.60370
G1 X119.411 Y154.514 E6.60833
G1 X124.514 Y149.411 E6.72727
G1 X124.514 Y149.131 E6.73189
G1 X119.131 Y154.514 E6.85738
G1 X118.851 Y154.514 E6.86200
G1 X124.514 Y148.851 E6.99402
G1 X124.514 Y148.570 E6.99864
G1 X118.570 Y154.514 E7.13719
G1 X118.290 Y154.514 E7.14182
G1 X124.514 Y148.290 E7.28691
G1 X124.514 Y148.010 E7.29153
G1 X118.010 Y154.514 E7.44315
G1 X117.729 Y154.514 E7.44777
G1 X124.514 Y147.729 E7.60594
G1 X124.514 Y147.449 E7.61056
G1 X117.449 Y154.514 E7.77526
G1 X117.168 Y154.514 E7.77988
G1 X124.514 Y147.168 E7.95111
G1 X124.514 Y146.888 E7.95573
G1 X116.888 Y154.514 E8.13350
G1 X116.608 Y154.514 E8.13812
G1 X124.514 Y146.608 E8.32243
G1 X124.514 Y146.327 E8.32705
G1 X116.327 Y154.514 E8.51789
G1 X116.047 Y154.514 E8.52251
G1 X124.514 Y146.047 E8.71989
G1 X124.514 Y145.767 E8.72451
G1 X115.767 Y154.514 E8.92842
G1 X115.486 Y154.514 E8.93304
G1 X124.514 Y145.486 E9.14349
G1 X124.233 Y145.486 E9.14811
G1 X115.486 Y154.233 E9.35203
G1 X115.486 Y153.953 E9.35665
G1 X123.953 Y145.486 E9.55403
G1 X123.673 Y145.486 E9.55865
G1 X115.486 Y153.673 E9.74949
G1 X115.486 Y153.392 E9.75411
G1 X123.392 Y145.486 E9.93842
G1 X123.112 Y145.486 E9.94304
G1 X115.486 Y153.112 E10.12081
G1 X115.486 Y152.832 E10.12543
G1 X122.832 Y145.486 E10.29667
G1 X122.551 Y145.486 E10.30129
G1 X115.486 Y152.551 E10.46599
G1 X115.486 Y152.271 E10.47061
G1 X122.271 Y145.486 E10.62878
G1 X121.991 Y145.486 E10.63340
G1 X115.486 Y151.991 E10.78503
G1 X115.486 Y151.710 E10.78965
G1 X121.710 Y145.486 E10.93474
G1 X121.430 Y145.486 E10.93936
G1 X115.486 Y151.430 E11.07792
G1 X115.486 Y151.149 E11.08254
G1 X121.149 Y145.486 E11.21456
G1 X120.869 Y145.486 E11.21918
G1 X115.486 Y150.869 E11.34467
G1 X115.486 Y150.589 E11.34929
G1 X120.589 Y145.486 E11.46824
G1 X120.308 Y145.486 E11.47286
G1 X115.486 Y150.308 E11.58527
G1 X115.486 Y150.028 E11.58989
G1 X120.028 Y145.486 E11.69577
G1 X119.748 Y145.486 E11.70039
G1 X115.486 Y149.748 E11.79973
G1 X115.486 Y149.467 E11.80435
G1 X119.467 Y145.486 E11.89716
G1 X119.187 Y145.486 E11.90178
G1 X115.486 Y149.187 E11.98805
G1 X115.486 Y148.907 E11.99267
G1 X118.907 Y145.486 E12.07241
G1 X118.626 Y145.486 E12.07703
G1 X115.486 Y148.626 E12.15023
G1 X115.486 Y148.346 E12.15485
G1 X118.346 Y145.486 E12.22151
G1 X118.065 Y145.486 E12.22613
G1 X115.486 Y148.065 E12.28626
G1 X115.486 Y147.785 E12.29088
G1 X117.785 Y145.486 E12.34447
G1 X117.505 Y145.486 E12.34909
G1 X115.486 Y147.505 E12.39615
G1 X115.486 Y147.224 E12.40077
G1 X117.224 Y145.486 E12.44129
G1 X116.944 Y145.486 E12.44591
G1 X115.486 Y146.944 E12.47989
G1 X115.486 Y146.664 E12.48452
G1 X116.664 Y145.486 E12.51196
G1 X116.383 Y145.486 E12.51659
G1 X115.486 Y146.383 E12.53750
G1 X115.486 Y146.103 E12.54212
G1 X116.103 Y145.486 E12.55650
G1 X115.823 Y145.486 E12.56112
G1 X115.486 Y145.823 E12.56896
G1 X115.486 Y145.542 E12.57358
G1 X115.542 Y145.486 E12.57488
G1 F6240
G1 X115.486 Y145.542 E12.54597
G1 F6240
G1 X115.486 Y145.823 E12.44353
G1 F6240
G1 X115.823 Y145.486 E12.26974
